!!!!SEGMENT: pl-kk--kk-i-2--050-001_anonim--pro-natali-domini-sanctus.krn
!!!cenid: 16xx:1727
!!!COM: Anonim
!!!COM-rismID: pe30004985
!!!CDT:
!!!CNT:
!!!OPR: Pro natali Domini
!!!OTL: Sanctus
!!!OMV: 001
!!!AGN: Sacred; Mass
!!!SMS-siglum: PL-Kk
!!!SMS-shelfmark: Kk.I.2
!!!SMS-shelfwork: 050-001 M
!!!SMS-variant:
!!!SMS-altvar:
!!!NIFC-rismSourceID: 300258068
!!!NIFC-islandoraID: pl-kk:750
!!!URL-pdf-islandora: https://repozytorium.nifc.pl/islandora/object/pl-kk%3A750/datastream/PDF/view#page=85
!!!URL-scan: https://polish.musicsources.pl/pl/lokalizacje/galeria/rekopisy/5828 @EN{Scan on Polish Music Herritage in Open Access Website} @PL{Skany w portalu Dziedzictwo Muzyki Polskiej w otwartym dostępie}
!!!ONB-nifc: Części mszy: Sanctus, Agnus Dei; skany: C: 0085-0086; A: 0189-0190; T: 0288; B: 0389-0390
!!!AIN: 1 alto 1 bass 1 soprn 1 tenor
!!!key: d:dor
**kern	**text	**kern	**text	**kern	**text	**kern	**text
*part4	*part4	*part3	*part3	*part2	*part2	*part1	*part1
*staff4	*staff4	*staff3	*staff3	*staff2	*staff2	*staff1	*staff1
*I"BASSUS	*	*I"TENOR	*	*I"ALTUS	*	*I"CANTUS	*
*I'B	*	*I'T	*	*I'A	*	*I'S	*
*ICvox	*	*ICvox	*	*ICvox	*	*ICvox	*
*Ibass	*	*Itenor	*	*Ialto	*	*Isoprn	*
*clefF4	*	*clefC4	*	*clefC4	*	*clefC3	*
*k[b-]	*	*k[b-]	*	*k[b-]	*	*k[b-]	*
*d:dor	*	*d:dor	*	*d:dor	*	*d:dor	*
*M3/1	*	*M3/1	*	*M3/1	*	*M3/1	*
=1	=1	=1	=1	=1	=1	=1	=1
*	*	*	*	*2\right	*	*2\right	*
!	!	!	!	!LO:TX:t=P:problem: 2,4\right	!	!LO:TX:t=P:problem: 2,4\right	!
!	!	!	!	!LO:TX:t=P:problem: w źródle podwójnie zapisane metrum: *met(O|) oraz M3/1	!	!LO:TX:t=P:problem: w źródle podwójnie zapisane metrum: *met(O|) oraz M3/1	!
!	!	!	!	!LO:TX:t=P:problem: w źródle A zapisany w kluczu tenorowym	!	!LO:TX:t=P:problem: w źródle S zapisany w kluczu altowym	!
0GG	{S}An-	0G	{S}an-	0B-	{S}An-	0d	{S}An-
1D	-ctus	1F#X	-ctus	1A	-ctus	1d	-ctus
!LO:TX:t=P:problem: kreska pseudotaktowa	!	!	!	!	!	!	!
=2	=2	=2	=2	=2	=2	=2	=2
*	*	*	*ij	*	*	*lig	*
0G	San-	0B-	San-	0G	San-	1d	San-
.	.	.	.	.	.	1g	.
*	*	*	*	*	*	*Xlig	*
1B-	-ct[us]	1B-	-ctus	1d	-ct[us]	1f	.
!LO:TX:t=P:problem: kreska pseudotaktowa	!	!	!	!	!	!	!
=3	=3	=3	=3	=3	=3	=3	=3
*	*	*	*	*	*ij	*	*
0F	San-	0A	San-	0c	San-	(0f	.
1G	.	1G	.	1B-	.	1d)	.
=4	=4	=4	=4	=4	=4	=4	=4
0.D	-ct[us]	0.F#X	-ctus	0.A	-ct[us]	0.d	-ctus
!LO:TX:t=P:problem: kreska pseudotaktowa	!	!	!	!	!	!	!
=5	=5	=5	=5	=5	=5	=5	=5
*	*	*	*	*	*Xij	*	*ij
0BB-	San-	0B-	San-	0d	San-	0f	San-
1BB-	-ct[us]	1B-	-ctus	1d	-ct[us]	1f	-ctus
=6	=6	=6	=6	=6	=6	=6	=6
*	*	*	*	*	*ij	*	*
0F	San-	0A	San-	0c	San-	0f	San-
1D	-ct[us]	1B-	-ctus	1d	-ct[us]	1f	-ctus
!LO:TX:t=P:problem: kreska pseudotaktowa	!	!	!	!	!	!	!
=7	=7	=7	=7	=7	=7	=7	=7
*lig	*	*	*	*	*	*	*Xij
1E-X	San-	0G	San-	1B-	San-	0e-X	San-
*	*	*	*	*col	*	*	*
1C	.	.	.	0A	.	.	.
*Xlig	*	*	*	*Xcol	*	*	*
1D	.	1F#X	.	.	.	1d	.
=8	=8	=8	=8	=8	=8	=8	=8
0.GG	-ct[us]	0.G	-ctus	0.B-X	-ct[us]	0.d	-ctus
!LO:TX:t=P:problem: kreska pseudotaktowa	!	!	!	!	!	!	!
*	*	*	*Xij	*	*Xij	*	*
=9	=9	=9	=9	=9	=9	=9	=9
1.D	Do-	1.F#X	Do-	1.A	Do-	1.d	Do-
2D\	-mi-	2F#/	-mi-	2A/	-mi-	2d\	-mi-
1G	-nus	1G	-nus	1B-	-nus	1d	-nus
!LO:TX:t=P:problem: kreska pseudotaktowa	!	!	!	!	!	!	!
=10	=10	=10	=10	=10	=10	=10	=10
0.F	De-	0A	De-	0c	De-	0f	De-
.	.	1c	-us	1A	-us	1f	-us
=11	=11	=11	=11	=11	=11	=11	=11
*	*	*lig	*	*	*	*	*
1BB-	-us	1d	Sab-	2B-/	Sab-	0f	Sab-
.	.	.	.	2A/	.	.	.
1.C	Sab-	1.c	.	2G/	.	.	.
.	.	.	.	2F/	.	.	.
.	.	.	.	2.G/	.	1e	-ba-
*	*	*Xlig	*	*	*	*	*
2C/	-ba-	2c\	-ba-	.	.	.	.
!	!	!	!	!LO:SIC:v:t=custos A	!	!	!
.	.	.	.	4G/	-ba-	.	.
!	!	!	!	!LO:LB:g=original	!	!	!
=12	=12	=12	=12	=12	=12	=12	=12
!LO:TX:a:t=Pro Natali\nDomini.	!	!	!	!	!	!	!
!LO:SIC:v:t=custos F	!	!	!	!	!	!LO:SIC:v:t=custos f	!
0.FF	-oth	0.c	-oth	0.A	-oth	0.f	-oth.
!LO:LB:g=original	!	!	!	!	!	!LO:LB:g=original	!
!LO:TX:t=P:problem: kreska pseudotaktowa	!	!	!	!	!	!	!
=13	=13	=13	=13	=13	=13	=13	=13
*	*	*	*	*	*ij	*	*
1.F	Do-	1.A	Do-	1.c	Do-	1.f	Do-
2F\	-mi-	2A/	-mi-	2c\	-mi-	2f\	-mi-
!	!	!LO:SIC:v:t=custos A	!	!	!	!	!
1BB-	-n[us]	1B-	-nus	1d	-nus	1f	-n[us]
!LO:TX:t=P:problem: kreska pseudotaktowa	!	!LO:LB:g=original	!	!	!	!	!
=14	=14	=14	=14	=14	=14	=14	=14
1.F	De-	1.A	De-	1.c	De-	2f\	De-
.	.	.	.	.	.	2g\	.
.	.	.	.	.	.	0a	.
2E\	.	4B-\	.	4d\	.	.	.
.	.	4c\	.	4e\	.	.	.
1D	-us	2d\	.	1f	-us	.	.
.	.	2A\	-us	.	.	.	.
=15	=15	=15	=15	=15	=15	=15	=15
1E	Sab-	0c	Sab-	1e	Sab-	1g	-us
1.G	-ba-	.	.	1.d	.	1.g	Sab-
!	!	!LO:TX:t=P:problem:♯above	!	!	!	!	!
!	!	!LO:SIC:o=1B#	!	!	!	!	!
.	.	1Bn	-ba-	.	.	.	.
2GG/	.	.	.	2d\	-ba-	2g\	-ba-
=16	=16	=16	=16	=16	=16	=16	=16
0.C;;	-oth	0.c;;	-oth	0.c;	-oth	0.e;	-oth
!LO:TX:t=P:problem: kreska pseudotaktowa	!	!	!	!	!	!	!
*	*	*	*	*	*Xij	*	*
=17||	=17||	=17||	=17||	=17||	=17||	=17||	=17||
1G	Ple-	1d	Ple-	1B-	Ple-	1g	Ple-
1G	-ni	1d	-ni	1B-	-ni	1g	-ni
1G	ſunt	1d	ſunt	1B-	ſunt	1g	ſunt
=18	=18	=18	=18	=18	=18	=18	=18
0B-	cae-	0B-	ca[e]-	0d	cae-	(2f\	cae-
.	.	.	.	.	.	2e\)	.
.	.	.	.	.	.	(2f\	-li
.	.	.	.	.	.	2d\)	.
1A	-li	1c	-li	1c	-li	(2e\	et
.	.	.	.	.	.	2f\)	.
!LO:TX:t=P:problem: kreska pseudotaktowa	!	!	!	!	!	!	!
=19	=19	=19	=19	=19	=19	=19	=19
*col	*	*col	*	*col	*	*	*
1G	et	1d	et	1B-	et	0g	ter-
0D	ter-	0d	ter-	0A	ter-	.	.
.	.	.	.	.	.	1f#X	.
!	!	!	!	!	!	!LO:TX:t=P:problem:♯above	!
*Xcol	*	*Xcol	*	*Xcol	*	*	*
=20	=20	=20	=20	=20	=20	=20	=20
0.GG	-ra	0.d	-ra	0.B-X	-ra	0.g	-ra
!LO:TX:t=P:problem: kreska pseudotaktowa	!	!	!	!	!	!	!
=21	=21	=21	=21	=21	=21	=21	=21
1.D	glo-	1.d	glo-	1.A	glo-	1.f#X	glo-
2D\	-ri-	2d\	-ri-	2A\	-ri-	2f#\	-ri-
1G	-a	1d	-a	1B-	-a	1g	-a
!LO:TX:t=P:problem: kreska pseudotaktowa	!	!	!	!	!	!	!
=22	=22	=22	=22	=22	=22	=22	=22
*	*	*	*	*	*ij	*	*ij
0F	glo-	0f	glo-	0c	glo-	1.a	glo-
.	.	.	.	.	.	2g\	-ri-
!	!	!	!	!	!	!LO:SIC:v:t=custos f	!
!	!	!	!	!	!	!LO:SIC:o=1f	!
1F	-ri-	1f	-ri-	1A	-ri-	1fn	-a
!LO:TX:t=P:problem: kreska pseudotaktowa	!	!	!	!	!	!LO:LB:g=original	!
=23	=23	=23	=23	=23	=23	=23	=23
*	*	*col	*	*col	*	*	*Xij
1BB-	-a	1d	-a	1B-	-a	0f	tu-
*col	*	*	*	*	*Xij	*	*
0C	tu-	0c	tu-	0G	tu-	.	.
.	.	.	.	.	.	1e	.
*Xcol	*	*Xcol	*	*Xcol	*	*	*
!LO:TX:t=P:problem: kreska pseudotaktowa	!	!	!	!	!	!	!
=24	=24	=24	=24	=24	=24	=24	=24
!LO:SIC:v:t=custos B-	!	!	!	!LO:SIC:v:t=custos d	!	!	!
0.FF	-a	0.c	-a	0.A	-a	0.f	-a
!LO:LB:g=original	!	!	!	!LO:LB:g=original	!	!	!
!LO:TX:t=P:problem: kreska pseudotaktowa	!	!	!	!	!	!	!
=25	=25	=25	=25	=25	=25	=25	=25
*	*	*	*ij	*	*	*	*
1.BB-	glo-	1.B-	glo-	1.d	glo-	1.f	glo-
2BB-/	-ri-	2B-\	-ri-	2d\	-ri-	2f\	-ri-
1BB-	-a	1B-	-a	1d	-a	1f	-a
!LO:TX:t=P:problem: kreska pseudotaktowa	!	!	!	!	!	!	!
=26	=26	=26	=26	=26	=26	=26	=26
*	*ij	*	*	*	*ij	*	*ij
1.F	glo-	1.A	glo-	1.c	glo-	1.f	glo-
2F\	-ri-	2A/	-ri-	2c\	-ri-	2f\	-ri-
!	!	!LO:SIC:v:t=custos G	!	!	!	!	!
1D	-a	1B-	-a	1d	-a	1f	-a
!LO:TX:t=P:problem: kreska pseudotaktowa	!	!LO:LB:g=original	!	!	!	!	!
*	*Xij	*	*	*	*Xij	*	*Xij
=27	=27	=27	=27	=27	=27	=27	=27
*lig	*	*	*	*	*	*	*
1E-X	tu-	0G	tu-	1B-	tu-	(0e-X	tu-
*	*	*	*	*col/**Xcol	*	*	*
1C	.	.	.	0A	.	.	.
*Xlig	*	*	*	*	*	*	*
1D	.	1F#X	.	.	.	1d)	.
=28	=28	=28	=28	=28	=28	=28	=28
!	!	!	!	!LO:TX:t=P:problem:♯above	!	!	!
!	!	!	!	!LO:SIC:o=0.B#	!	!	!
0.GG	-a	1G	-a	0.Bn	-a	0.d	-a
*	*	*	*Xij	*	*	*	*
.	.	2d\	glo-	.	.	.	.
.	.	2c\	.	.	.	.	.
.	.	2B-\	.	.	.	.	.
.	.	2A/	.	.	.	.	.
!LO:TX:t=P:problem: kreska pseudotaktowa	!	!	!	!	!	!	!
=29	=29	=29	=29	=29	=29	=29	=29
*	*ij	*	*	*	*ij	*	*
1.G	glo-	1.B-	.	1.d	glo-	2d\	glo-
.	.	.	.	.	.	4e\	.
.	.	.	.	.	.	4f\	.
.	.	.	.	.	.	2.g\	.
2G\	-ri-	2B-\	-ri-	2d\	-ri-	.	.
.	.	.	.	.	.	4g\	-ri-
1D	-a	1B-	-a	1d	-a	1f	-a
!LO:TX:t=P:problem: kreska pseudotaktowa	!	!	!	!	!	!	!
=30	=30	=30	=30	=30	=30	=30	=30
*	*	*	*ij	*	*	*	*
1.F	glo-	1.A	glo-	1.c	glo-	0f	tu-
2F\	-ri-	2A/	-ri-	2c\	-ri-	.	.
1D	-a	1B-	-a	1d	-a	1f	-a
!LO:TX:t=P:problem: kreska pseudotaktowa	!	!	!	!	!	!	!
=31	=31	=31	=31	=31	=31	=31	=31
*lig	*	*	*Xij	*	*	*	*ij
1E-X	tu-	0G	tu-	1B-	tu-	1e-X	glo-
*	*	*	*	*	*	*lig	*
1C	.	.	.	0A	.	1e-	-ri-
*Xlig	*	*	*	*	*	*	*
1D	.	1F#X	.	.	.	1d	.
*	*	*	*	*	*	*Xlig	*
=32	=32	=32	=32	=32	=32	=32	=32
0.GG	-a	0G	-a	0.Bn	-a	0.d	-a
.	.	1G	O-	.	.	.	.
*	*Xij	*	*	*	*	*	*Xij
!LO:TX:t=P:problem: kreska pseudotaktowa	!	!	!	!	!	!	!
=33	=33	=33	=33	=33	=33	=33	=33
1r	.	1.B-	-ſan-	0.r	.	0.r	.
1r	.	.	.	.	.	.	.
.	.	2G/	-na	.	.	.	.
1GG	O-	2B-\	in	.	.	.	.
.	.	2c\	ex-	.	.	.	.
=34	=34	=34	=34	=34	=34	=34	=34
1.BB-	-ſan-	2d\	-cel-	0.r	.	1r	.
.	.	2c\	.	.	.	.	.
*	*	*col	*	*	*	*	*
.	.	0B-	.	.	.	1r	.
2AA/	-na	.	.	.	.	.	.
2BB-/	in	.	.	.	.	1d	Ho-
!LO:SIC:v:t=custos D	!	!	!	!	!	!	!
2C/	ex-	.	.	.	.	.	.
*	*	*Xcol	*	*	*Xij	*	*
!LO:LB:g=original	!	!	!	!	!	!	!
!LO:TX:t=P:problem: kreska pseudotaktowa	!	!	!	!	!	!	!
=35	=35	=35	=35	=35	=35	=35	=35
0.D	-cel-	0.A	-ſis	1r	.	1.f	-ſan-
.	.	.	.	1r	.	.	.
.	.	.	.	.	.	2e\	-na
.	.	.	.	1D	O-	2f\	in
!	!	!	!	!	!	!LO:SIC:v:t=custos a	!
.	.	.	.	.	.	2g\	ex-
!LO:TX:t=P:problem: kreska pseudotaktowa	!	!	!	!	!	!LO:LB:g=original	!
=36	=36	=36	=36	=36	=36	=36	=36
0D	-ſis	1r	.	1.F	-ſan-	1.a	-cel-
.	.	1r	.	.	.	.	.
.	.	.	.	2E/	-na	2g\	.
*	*ij	*	*	*	*	*	*
1D	O-	1d	O-	2F/	in	1f	.
.	.	.	.	2G/	ex-	.	.
!LO:TX:t=P:problem: kreska pseudotaktowa	!	!	!	!	!	!	!
=37	=37	=37	=37	=37	=37	=37	=37
1.F	-ſan-	2c\	-ſan-	2A/	-cel-	0f	-ſis
.	.	2B-\	.	2B-\	.	.	.
.	.	2A/	.	1c	.	.	.
2E\	-na	2G/	-na	.	.	.	.
!	!	!	!	!LO:SIC:v:t=custos A	!	!	!
*	*	*	*	*	*	*	*ij
2F\	in	2A/	in	1c	-ſis	1f	Ho-
2G\	ex-	2B-\	ex-	.	.	.	.
!LO:TX:t=P:problem: kreska pseudotaktowa	!	!	!	!LO:LB:g=original	!	!	!
=38	=38	=38	=38	=38	=38	=38	=38
!	!	!LO:SIC:v:t=custos d	!	!	!	!	!
0.A	-cel-	0.c	-cel-	1r	.	1.e	-ſan-
.	.	.	.	1r	.	.	.
.	.	.	.	.	.	2d\	-na
.	.	.	.	1A	O-	2e\	in
.	.	.	.	.	.	2f\	ex-
!	!	!LO:LB:g=original	!	!	!	!	!
=39	=39	=39	=39	=39	=39	=39	=39
0G	-ſis	0.d	-ſis	1.B-	-ſan-	0.g	-cel-
.	.	.	.	2A\	-na	.	.
1GG	O-	.	.	2B-\	in	.	.
.	.	.	.	2c\	ex-	.	.
!LO:TX:t=P:problem: kreska pseudotaktowa	!	!	!	!	!	!	!
=40	=40	=40	=40	=40	=40	=40	=40
1.BB-	-ſan-	1r	.	[<0.d	-cel-	0f	-ſis
.	.	1r	.	.	.	.	.
2AA/	-na	.	.	.	.	.	.
*	*	*	*ij	*	*	*	*
2BB-/	in	1B-	O-	.	.	1d	Ho-
2C/	ex-	.	.	.	.	.	.
!LO:TX:t=P:problem: kreska pseudotaktowa	!	!	!	!	!	!	!
=41	=41	=41	=41	=41	=41	=41	=41
0.D	-cel-	1.A	-ſan-	0.d_<	.	1.f#X	-ſan-
.	.	2G/	-na	.	.	2g\	-na
.	.	1F#X	in	.	.	1a	in
=42	=42	=42	=42	=42	=42	=42	=42
!	!	!	!	!	!	!	!
0.D	.	1B-	ex-	0.d]	.	1g	ex-
*	*	*col	*	*	*	*lig	*
.	.	0A	-cel-	.	.	1g	-cel-
!	!	!	!	!	!	!LO:TX:t=P:problem:♯ below	!
.	.	.	.	.	.	1f#X	.
*	*	*Xcol	*	*	*	*Xlig	*
=43	=43	=43	=43	=43	=43	=43	=43
0GG;	-ſis	0B-;<	-ſis	0d;<	-ſis	0g;	-ſis
1ryy	.	1ryy	.	1ryy	.	1ryy	.
*	*Xij	*	*Xij	*	*	*	*Xij
!LO:TX:t=P:problem: kreska pseudotaktowa	!	!	!	!	!	!	!
=44||	=44||	=44||	=44||	=44||	=44||	=44||	=44||
*clefF4	*	*clefC4	*	*	*	*	*
*k[b-]	*	*k[b-]	*	*	*	*	*
*M3/1	*	*M3/1	*	*M3/1	*	*M3/1	*
!LO:TX:t=P:problem: w źródle podwójnie zapisane metrum: *met(O|) oraz M3/1 	!	!LO:TX:t=P:problem: w źródle ponownie zapisany klucz oraz metrum i znak przykluczowy (znak przykluczowy po metrum) 	!	!	!	!LO:TX:t=P:problem: w źródle podwójnie zapisane metrum: *met(O|) oraz M3/1	!
0G	[B]e-	1r	.	0d	{B}E-	0g	[B]E-
.	.	1B-	[B]E-	.	.	.	.
1D	-ne-	1A	-ne-	1d	-ne-	1f#X	-ne-
!LO:TX:t=P:problem: kreska pseudotaktowa	!	!	!	!	!	!	!
=45	=45	=45	=45	=45	=45	=45	=45
0G	-dic-	0B-	-di-	2d\	-di-	0g	-dic-
.	.	.	.	2c\	.	.	.
.	.	.	.	1B-	.	.	.
!	!	!	!	!	!	!LO:SIC:o=1f-	!
1B-X	-t[us]	1d	-ct[us]	1B-	-ct[us]	1fn	-t[us]
!LO:TX:t=P:problem: kreska pseudotaktowa	!	!	!	!	!	!	!
=46	=46	=46	=46	=46	=46	=46	=46
*col	*	*	*	*col	*	*col	*
1F	qui	1c	qui	1A	qui	1f	qui
*	*	*col	*	*	*	*	*
0G	ve-	0B-	ve-	0G	ve-	0d	ve-
*Xcol	*	*Xcol	*	*Xcol	*	*Xcol	*
=47	=47	=47	=47	=47	=47	=47	=47
0D	-nit	0A	-nit	0F-	-nit	0d	-nit
1D	in	1A	in	1F-	in	1f	in
!LO:TX:t=P:problem: kreska pseudotaktowa	!	!	!	!	!	!	!
=48	=48	=48	=48	=48	=48	=48	=48
1.BB-	no-	1.d	no-	1.B-	no-	1.f	no-
2BB-/	-mi-	2d\	-mi-	2B-\	-mi-	2f\	-mi-
!	!	!	!	!LO:SIC:v:t=custos B-	!	!	!
1C	-ne	1e-X	-ne	1G	-ne	1e-X	-ne
!LO:TX:t=P:problem: kreska pseudotaktowa	!	!	!	!LO:LB:g=original	!	!	!
=49	=49	=49	=49	=49	=49	=49	=49
*lig	*	*lig	*	*	*	*	*
1D	Do-	1d	Do-	0B-	Do-	0f	Do-
1.F	.	1.c	.	.	.	.	.
.	.	.	.	1A	-mi-	1f	-mi-
*Xlig	*	*Xlig	*	*	*	*	*
2FF/	-mi-	2c\	-mi-	.	.	.	.
!LO:TX:t=P:problem: kreska pseudotaktowa	!	!	!	!	!	!	!
=50	=50	=50	=50	=50	=50	=50	=50
0BB-	-ni	0d	-ni,	0B-	-ni	0f	.
!	!	!LO:SIC:v:t=custos B-	!	!	!	!	!
1B-	Ho-	1B-	O-	1d	Ho-	1f	-ni
!LO:TX:t=P:problem: kreska pseudotaktowa	!	!LO:LB:g=original	!	!	!	!	!
=51	=51	=51	=51	=51	=51	=51	=51
1.B-	-ſan-	1.B-	-ſan-	1.d	-ſan-	1.f	Ho-
2G\	.	2B-\	.	2e-X\	.	2g\	-ſan-
1B-	-na	1B-	-na	1d	-na	1f	-na
!LO:TX:t=P:problem: kreska pseudotaktowa	!	!	!	!	!	!	!
=52	=52	=52	=52	=52	=52	=52	=52
*	*	*	*	*	*ij	*	*ij
1.F	Ho-	1.A	O-	1.c	Ho-	1.f	Ho-
2F\	-ſan-	2A/	-ſan-	2c\	-ſan-	2f\	-ſan-
!LO:SIC:v:t=custos F	!	!	!	!	!	!	!
1F	-na	1A	-na	1c	-na	1f	-na
!LO:LB:g=original	!	!	!	!	!	!	!
!LO:TX:t=P:problem: kreska pseudotaktowa	!	!	!	!	!	!	!
=53	=53	=53	=53	=53	=53	=53	=53
*	*ij	*	*ij	*	*	*	*
1.F	Ho-	1.A	O-	1.c	Ho-	1.f	Ho-
2D\	-ſan-	2B-/	-ſan-	2d\	-ſan-	2f\	-ſan-
1E-X	-na	1G	-na	1B-	-na	1e-X	-na
!LO:TX:t=P:problem: kreska pseudotaktowa	!	!	!	!	!	!	!
=54	=54	=54	=54	=54	=54	=54	=54
1.C	Ho-	2G/	in	1c	Ho-	1.e-	Ho-
.	.	4A/	ex-	.	.	.	.
.	.	4B-/	.	.	.	.	.
.	.	1c	-cel-	1c	-ſan-	.	.
2C/	-ſan-	.	.	.	.	2f\	.
!	!	!	!	!	!	!LO:SIC:v:t=custos g	!
1C	-na	1c	-ſis	1e-X	-na	1g	-ſan-
!LO:TX:t=P:problem: kreska pseudotaktowa	!	!	!	!	!	!LO:LB:g=original	!
*	*	*	*Xij	*	*	*	*
=55	=55	=55	=55	=55	=55	=55	=55
1E-X	Ho-	1r	.	1.e-X	Ho-	0.g	-na
1C	-ſan-	1r	.	.	.	.	.
.	.	.	.	2e-\	-ſan-	.	.
1E-	-na	1G	Ho-	1e-	-na	.	.
!LO:TX:t=P:problem: kreska pseudotaktowa	!	!	!	!	!	!	!
*	*	*	*	*	*Xij	*	*Xij
=56	=56	=56	=56	=56	=56	=56	=56
1.BB-	Ho-	2B-\	-ſan-	0d	in	1r	.
.	.	2c\	-na	.	.	.	.
.	.	2d\	in	.	.	1r	.
2C/	-ſan-	4c\	ex-	.	.	.	.
.	.	4B-\	.	.	.	.	.
1D	-na	[1A'	-cel-	1d	ex-	1d	Ho-
*	*Xij	*	*	*	*	*	*
!LO:TX:t=P:problem: kreska pseudotaktowa	!	!	!	!	!	!	!
=57	=57	=57	=57	=57	=57	=57	=57
*col	*	*	*	*col	*	*	*
0D	in	2A\]	.	0d	-cel-	2f\	-ſan-
.	.	2G/	.	.	.	2e\	-na
.	.	2A\	.	.	.	2f\	in
.	.	2B-\	.	.	.	2g\	ex-
0C	ex-	1.c'	.	0e-X	.	1a	-cel-
=58	=58	=58	=58	=58	=58	=58	=58
.	.	.	.	.	.	0g	.
.	.	2B-\	.	.	.	.	.
0D	-cel-	2A/	.	0d	.	.	.
.	.	2G/	.	.	.	.	.
.	.	1A	.	.	.	1f#X	.
*Xcol	*	*	*	*Xcol	*	*	*
!	!	!	!	!	!	!	!
=59	=59	=59	=59	=59	=59	=59	=59
*	*	*	*	*M2/1	*	*	*
*	*	*	*	*met(C|)	*	*	*
!	!	!LO:SIC:o=0B#	!	!	!	!	!
0GG;	-ſis.	0Bn;	-ſis.	0d;<	-ſis.	0g;<	-ſis
1ryy	.	1ryy	.	1ryy	.	1ryy	.
==	==	==	==	==	==	==	==
*-	*-	*-	*-	*-	*-	*-	*-
!!!system-decoration: [(s1,s2,s3,s4)]
!!!RDF**kern: > = above
!!!RDF**kern: < = below
!!!ENC: Arek Malec
!!!END: 2022-05-05
!!!ENC: Jan Barakat
!!!END: 2022-05-11
